X: 12863
T: Fermoy Lasses, The
R: reel
M: 4/4
K: Eminor
cE~E2 cAGE|~D2AD E/F/GAB|~c3B cded|~d2AG FGAB|
cEE2 cAGE|~D2AD E/F/GAB|c/d/cBd cded|~cABG AGEF||

